images_elementary_svg/cmd/lc_dbviewtablenames.svg

<svg height="24" width="24" xmlns="http://www.w3.org/2000/svg" xmlns:xlink="http://www.w3.org/1999/xlink"><linearGradient id="a" gradientTransform="matrix(.45 0 0 .3 2.975 6.85)" gradientUnits="userSpaceOnUse" x1="21.478" x2="21.478" y1=".537" y2="6.575"><stop offset="0" stop-color="#eeeeec"/><stop offset="1" stop-color="#fff"/></linearGradient><linearGradient id="b" gradientTransform="matrix(.44577 0 0 .44994 .802 -.025)" gradientUnits="userSpaceOnUse" x1="25.132" x2="25.132" y1="15.5" y2="48.396"><stop offset="0" stop-color="#fafafa"/><stop offset="1" stop-color="#e2e1de"/></linearGradient><linearGradient id="c" gradientTransform="matrix(.48484 0 0 .52706 -.165 -.4)" gradientUnits="userSpaceOnUse" x1="24" x2="24" xlink:href="#d" y1="5" y2="43"/><linearGradient id="d"><stop offset="0" stop-color="#fff"/><stop offset=".063" stop-color="#fff" stop-opacity=".235"/><stop offset=".951" stop-color="#fff" stop-opacity=".157"/><stop offset="1" stop-color="#fff" stop-opacity=".392"/></linearGradient><linearGradient id="e" gradientTransform="matrix(.5 0 0 .25 -1 3)" gradientUnits="userSpaceOnUse" x1="23.954" x2="23.954" y1="15.999" y2="19.963"><stop offset="0"/><stop offset="1" stop-opacity="0"/></linearGradient><linearGradient id="f" gradientUnits="userSpaceOnUse" x1="8.295" x2="8.295" y1="-4.284" y2="16.85"><stop offset="0" stop-color="#cdf87e"/><stop offset=".262" stop-color="#a2e34f"/><stop offset=".661" stop-color="#68b723"/><stop offset="1" stop-color="#1d7e0d"/></linearGradient><linearGradient id="g" gradientUnits="userSpaceOnUse" x1="11.001" x2="11.001" xlink:href="#d" y1="2.269" y2="19.728"/><rect fill="url(#b)" height="20" rx=".528" ry=".556" width="19" x="2" y="2"/><path d="m2.5 2.5h17.94v19.5h-17.94z" fill="none" stroke="url(#c)" stroke-linecap="round" stroke-linejoin="round" stroke-width="1.1"/><path d="m1 7h21v1h-21z" fill="url(#e)" opacity=".15"/><path d="m1.5 6.163v15.3c0 .575.462 1.037 1.036 1.037h17.928c.574 0 1.036-.462 1.036-1.036v-15.3" fill="none" opacity=".3" stroke="#000"/><path d="m2.536 1.5c-.574 0-1.036.462-1.036 1.036v3.964h20v-3.964c0-.574-.462-1.036-1.036-1.036z" fill="url(#f)"/><g fill="none"><path d="m2.536 1.5c-.574 0-1.036.462-1.036 1.036v3.964h20v-3.964c0-.574-.462-1.036-1.036-1.036z" opacity=".4" stroke="#126400" stroke-linecap="round"/><path d="m17.5 16.5h-13zm-.01-5.988-12.99-.01v7.998h13zm.01 3.988h-13m13-2h-13m2.545-1.98-.017 7.98m2.55-7.945-.006 7.945m2.535-7.972.004 7.972m2.52-8 .014 8" opacity=".2" stroke="#fff"/><path d="m2.5 2.5v3h18v-3z" opacity=".5" stroke="url(#g)" stroke-linecap="round" stroke-linejoin="round"/></g><path d="m6 7h1v15h-1zm5 0h1v15h-1zm5 0h1v15h-1zm-14 3h4v1h-4zm5 0h4v1h-4zm5 0h4v1h-4zm5 0h4v1h-4zm-15 4h4v1h-4zm5 0h4v1h-4zm5 0h4v1h-4zm5 0h4v1h-4zm-15 4h4v1h-4zm5 0h4v1h-4zm5 0h4v1h-4zm5 0h4v1h-4z" opacity=".321"/><path d="m6 2h1v4h-1zm5 0h1v4h-1zm5 0h1v4h-1z" fill="#126400" opacity=".4"/><path d="m5.5 6.5h17c.554 0 1 .446 1 1v2.97c0 .555-.446 1-1 1h-17c-.554 0-1-.445-1-1v-2.97c0-.554.446-1 1-1zm0 0h17z" fill="none" opacity=".3" stroke="#000"/><rect fill="url(#a)" height="4" rx=".5" width="18" x="5" y="7"/><path d="m6 8h16v2h-16z" fill="#3689e6"/></svg>

<svg xmlns="http://www.w3.org/2000/svg" xmlns:xlink="http://www.w3.org/1999/xlink" height="24" width="24"><defs><linearGradient x1="21.478" y1=".537" x2="21.478" y2="6.575" id="h" xlink:href="#a" gradientUnits="userSpaceOnUse" gradientTransform="matrix(.45 0 0 .3 2.975 6.85)"/><linearGradient id="a"><stop offset="0" stop-color="#eeeeec"/><stop offset="1" stop-color="#fff"/></linearGradient></defs><linearGradient id="c" gradientTransform="matrix(.44577 0 0 .44994 .802 -.025)" gradientUnits="userSpaceOnUse" x1="25.132" x2="25.132" y1="15.5" y2="48.396"><stop offset="0" stop-color="#fafafa"/><stop offset="1" stop-color="#e2e1de"/></linearGradient><linearGradient id="d" gradientTransform="matrix(.48484 0 0 .52706 -.165 -.4)" gradientUnits="userSpaceOnUse" x1="24" x2="24" xlink:href="#b" y1="5" y2="43"/><linearGradient id="b"><stop offset="0" stop-color="#fff"/><stop offset=".063" stop-color="#fff" stop-opacity=".235"/><stop offset=".951" stop-color="#fff" stop-opacity=".157"/><stop offset="1" stop-color="#fff" stop-opacity=".392"/></linearGradient><linearGradient id="e" gradientTransform="matrix(.5 0 0 .25 -1 3)" gradientUnits="userSpaceOnUse" x1="23.954" x2="23.954" y1="15.999" y2="19.963"><stop offset="0"/><stop offset="1" stop-opacity="0"/></linearGradient><linearGradient id="f" gradientUnits="userSpaceOnUse" x1="8.295" x2="8.295" y1="-4.284" y2="16.85"><stop offset="0" stop-color="#cdf87e"/><stop offset=".262" stop-color="#a2e34f"/><stop offset=".661" stop-color="#68b723"/><stop offset="1" stop-color="#1d7e0d"/></linearGradient><linearGradient id="g" gradientUnits="userSpaceOnUse" x1="11.001" x2="11.001" xlink:href="#b" y1="2.269" y2="19.728"/><rect fill="url(#c)" height="20" rx=".528" ry=".556" width="19" x="2" y="2"/><path d="M2.5 2.5h17.94V22H2.5z" fill="none" stroke="url(#d)" stroke-linecap="round" stroke-linejoin="round" stroke-width="1.1"/><path d="M1 7h21v1H1z" fill="url(#e)" opacity=".15"/><path d="M1.5 6.163v15.3c0 .575.462 1.037 1.036 1.037h17.928c.574 0 1.036-.462 1.036-1.036v-15.3" fill="none" opacity=".3" stroke="#000"/><path d="M2.536 1.5c-.574 0-1.036.462-1.036 1.036V6.5h20V2.536c0-.574-.462-1.036-1.036-1.036z" fill="url(#f)"/><g fill="none"><path d="M2.536 1.5c-.574 0-1.036.462-1.036 1.036V6.5h20V2.536c0-.574-.462-1.036-1.036-1.036z" opacity=".4" stroke="#126400" stroke-linecap="round"/><path d="M17.5 16.5h-13zm-.01-5.988l-12.99-.01V18.5h13zm.01 3.988h-13m13-2h-13m2.545-1.98l-.017 7.98m2.55-7.945L9.572 18.5m2.535-7.972l.004 7.972m2.52-8l.014 8" opacity=".2" stroke="#fff"/><path d="M2.5 2.5v3h18v-3z" opacity=".5" stroke="url(#g)" stroke-linecap="round" stroke-linejoin="round"/></g><path d="M6 7h1v15H6zM11 7h1v15h-1zM16 7h1v15h-1zM2 10h4v1H2zM7 10h4v1H7zM12 10h4v1h-4zM17 10h4v1h-4zM2 14h4v1H2zM7 14h4v1H7zM12 14h4v1h-4zM17 14h4v1h-4zM2 18h4v1H2zM7 18h4v1H7zM12 18h4v1h-4zM17 18h4v1h-4z" opacity=".321"/><g fill="#126400"><path d="M6 2h1v4H6zM11 2h1v4h-1zM16 2h1v4h-1z" opacity=".4"/></g><path d="M5.5 6.5h17c.554 0 1 .446 1 1v2.97c0 .555-.446 1-1 1h-17c-.554 0-1-.445-1-1V7.5c0-.554.446-1 1-1zm0 0h17-17z" opacity=".3" fill="none" stroke="#000"/><rect width="18" height="4" rx=".5" ry=".5" x="5" y="7" fill="url(#h)"/><path fill="#3689e6" d="M6 8h16v2H6z"/></svg>
